X: 0111
T: Clydeside Lassies - 8x32R
P: Clydeside Lassies
C: Surenne
B: Miss Milligan's Miscellany v.1 #0111
B: Originally Ours v.1 p.171 #MMM-0111
Z: 2020 John Chambers <jc:trillian.mit.edu>
M: 4/4
L: 1/8
R: reel
K: F
%
cB |:\
"F"AFcF "C/F"dFcF | "C"AFcF "C7"ABcB | "F"AFcF "C/F"dFcF | "E/C7"BAGA "C7"BcdB |
"F"AFcF "C/F"dFcF | "F"AFcF "C7"ABcB | "F"AFcF "C/F"dFcF | "E/C7"BAGA "C7"Bcde ||
"F"fgag "C/F"f2cf | "C7"gfga baga | "F"fgag fcAc | "Gm"BAGA "C7"Bcde |
"F"fgag "C/F"f2cf | "Gm"gfga "C7"baga | "F"fgaf "C"ge"F"fc |1 "Gm"BAGA "C7"BcdB :|2 "G/C7"defg "F"aff2 |]
